X: 20118
T: Jimmy's Favourite
R: jig
M: 6/8
K: Gmajor
|:dd/e/f|gbg dBd|G2 G GAB|c2 c cBA|E3 E2 g|
f2 f fed|fgf f2 e|1 d^cd ed=c|B3:|2 d^cd =cAF|G3||
DD/E/F|G2 G GDB,|GDB, G2 D|G2 G GAB|c3 cBA|
F2 F FED|FED F2 E|DFA cBA|B3 DD/E/F|
G2 G GDB,|GBA GDB,|G2 G GAB|c3 cdg|
f/g/ag fed|f/g/ag f2 e|d^cd =cAF|G3||

